agir/front/components/genericComponents/logos/lfi.svg

<!-- original viewbox="0 0 918 348" -->
<svg width="918" height="348" viewBox="-18 -7 964 362" fill="none" xmlns="http://www.w3.org/2000/svg">
<path d="M434.81 128.677V109.28C432.212 105.816 426.844 103.565 422.514 103.565C414.374 103.565 408.486 109.453 408.486 118.979C408.486 128.504 414.374 134.565 422.514 134.565C426.844 134.565 432.212 132.141 434.81 128.677ZM434.81 151.018V143.571C429.441 149.633 423.033 152.577 415.933 152.577C400.173 152.577 387.704 140.627 387.704 118.805C387.704 97.85 400 85.2074 415.933 85.3806C423.033 85.3806 429.788 88.1515 434.81 94.5594V86.9393H455.246V151.018H434.81Z" fill="#0098B6"/>
<path d="M336.267 62.5201V131.102H378.352V151.018H313.58L313.407 62.6932L336.267 62.5201Z" fill="#0098B6"/>
<path d="M504.604 151.018V62.6932H569.375V82.6096H527.464L527.291 96.2913L568.509 96.4645V116.208H527.291V151.018H504.604Z" fill="#0098B6"/>
<path d="M581.152 151.191V87.1124H601.588V94.9058C605.918 89.7102 614.057 85.3806 621.677 85.3806V104.951C620.465 104.604 618.733 104.431 616.655 104.431C611.286 104.431 604.359 106.682 601.761 110.319V151.191H581.152Z" fill="#0098B6"/>
<path d="M673.806 129.023V109.627C671.209 106.163 665.84 103.911 661.51 103.911C653.37 103.911 647.482 109.8 647.482 119.325C647.482 128.85 653.37 134.912 661.51 134.912C666.013 134.739 671.209 132.487 673.806 129.023ZM673.806 151.191V143.744C668.438 149.806 662.03 152.75 654.929 152.75C639.169 152.75 626.7 140.8 626.7 118.979C626.7 98.0232 638.996 85.3806 654.929 85.5538C662.03 85.5538 668.784 88.3248 673.806 94.7326V87.1125H694.242V151.191H673.806Z" fill="#0098B6"/>
<path d="M752.433 151.364V114.476C752.433 106.682 748.276 103.911 742.042 103.911C735.98 103.911 731.997 107.202 729.572 110.146V151.538H709.136V87.4588H729.572V95.2522C733.382 90.7494 741.002 85.9001 751.913 85.9001C766.288 85.9001 773.042 94.3862 773.042 106.163V151.538L752.433 151.364Z" fill="#0098B6"/>
<path d="M783.606 119.325C783.606 99.2355 798.5 85.727 818.416 85.9001C832.271 85.9001 840.757 91.9617 844.567 97.6768L831.232 109.973C828.634 106.336 824.651 103.911 819.109 103.911C810.623 103.911 804.215 109.8 804.042 119.325C804.042 129.023 810.45 134.912 818.936 134.912C824.305 134.912 828.461 132.314 831.059 128.677L844.221 141.146C840.411 146.688 831.925 152.923 817.897 152.923C798.5 152.923 783.606 139.241 783.606 119.325Z" fill="#0098B6"/>
<path d="M883.881 102.353C875.048 102.353 871.584 107.722 870.719 112.224H897.043C896.523 107.722 893.233 102.353 883.881 102.353ZM849.936 119.325C849.936 100.794 863.964 85.7269 883.881 85.9001C902.758 85.9001 916.613 99.9282 916.613 121.576V126.252H871.065C872.45 131.968 877.819 136.817 887.171 136.817C891.674 136.817 899.121 134.912 902.758 131.448L911.59 144.783C905.183 150.498 894.618 153.269 884.747 153.269C865.003 153.096 849.763 140.107 849.936 119.325Z" fill="#0098B6"/>
<path d="M315.139 260.125V196.912H335.228V260.125H315.139ZM313.753 179.767C313.753 173.359 318.949 168.337 325.357 168.337C331.765 168.337 336.96 173.532 336.96 179.94C336.96 186.348 331.765 191.543 325.357 191.543C318.949 191.543 313.753 186.175 313.753 179.767Z" fill="#C9462C"/>
<path d="M392.726 260.298V223.756C392.726 215.963 388.743 213.365 382.335 213.365C376.273 213.365 372.463 216.655 370.039 219.426V260.298H349.949V197.085H370.039V204.879C373.849 200.376 381.296 195.527 392.033 195.527C406.234 195.527 412.815 203.84 412.815 215.616V260.298H392.726Z" fill="#C9462C"/>
<path d="M422.167 252.159L430.48 237.784C435.156 241.941 445.201 246.27 452.648 246.27C458.71 246.27 461.134 244.538 461.134 241.767C461.134 233.974 424.419 241.941 424.419 216.309C424.419 205.225 434.117 195.527 451.609 195.527C462.347 195.527 471.179 198.99 478.106 204.013L470.313 218.214C466.503 214.577 459.402 211.287 451.782 211.287C447.106 211.287 443.989 213.192 443.989 215.616C443.989 222.544 480.704 215.443 480.531 241.248C480.531 253.371 469.967 261.857 451.782 261.857C440.352 261.857 428.749 258.047 422.167 252.159Z" fill="#C9462C"/>
<path d="M534.911 228.778C534.911 220.466 529.889 213.538 521.057 213.538C512.397 213.538 507.375 220.466 507.375 228.778C507.375 237.265 512.397 244.192 520.883 244.192C529.889 244.192 534.911 237.265 534.911 228.778ZM486.766 228.778C486.766 210.94 499.582 195.7 521.057 195.7C542.705 195.7 555.521 211.113 555.521 228.778C555.521 246.617 542.705 262.03 520.883 262.03C499.582 262.03 486.766 246.617 486.766 228.778Z" fill="#C9462C"/>
<path d="M608.862 260.471V252.851C604.879 257.354 597.778 262.03 587.04 262.03C572.839 262.03 566.258 253.717 566.258 242.287V197.259H586.348V233.974C586.348 241.767 590.331 244.365 596.739 244.365C602.454 244.365 606.437 241.248 608.862 238.304V197.432H628.951V260.645L608.862 260.471Z" fill="#C9462C"/>
<path d="M723.338 260.645V222.197C723.338 217.348 720.913 213.711 715.025 213.711C709.483 213.711 705.673 217.175 703.594 219.773V260.645H683.505V222.197C683.505 217.348 681.253 213.711 675.192 213.711C669.65 213.711 665.84 217.175 663.762 219.773V260.645H643.672V197.432H663.762V205.225C666.533 201.588 674.672 195.873 684.544 195.873C693.723 195.873 699.784 199.683 702.382 207.13C706.019 201.588 714.332 195.873 724.204 195.873C735.807 195.873 743.081 201.935 743.081 214.924V260.645H723.338Z" fill="#C9462C"/>
<path d="M757.975 260.645V197.432H778.064V260.645H757.975ZM756.762 180.286C756.762 173.879 761.958 168.856 768.366 168.856C774.774 168.856 779.969 174.052 779.969 180.46C779.969 186.867 774.774 192.063 768.366 192.063C761.958 192.063 756.762 186.694 756.762 180.286Z" fill="#C9462C"/>
<path d="M787.416 252.505L795.729 238.13C800.405 242.287 810.45 246.617 817.897 246.617C823.958 246.617 826.383 244.885 826.383 242.114C826.383 234.32 789.668 242.287 789.668 216.655C789.668 205.572 799.366 195.873 816.685 195.873C827.422 195.873 836.255 199.337 843.182 204.359L835.389 218.56C831.579 214.924 824.478 211.633 816.858 211.633C812.182 211.633 809.064 213.538 809.064 215.963C809.064 222.89 845.78 215.789 845.607 241.594C845.607 253.544 835.042 262.203 816.858 262.203C805.774 262.376 794.171 258.566 787.416 252.505Z" fill="#C9462C"/>
<path d="M885.613 212.326C876.78 212.326 873.49 217.521 872.624 222.197H898.602C898.255 217.695 894.965 212.326 885.613 212.326ZM852.188 229.125C852.188 210.767 866.043 196.046 885.786 196.046C904.49 196.046 918.172 209.901 917.998 231.203V235.706H872.97C874.356 241.421 879.551 246.097 888.73 246.097C893.233 246.097 900.507 244.192 904.143 240.728L912.976 253.89C906.741 259.432 896.177 262.203 886.479 262.203C867.082 262.376 852.188 249.734 852.188 229.125Z" fill="#C9462C"/>
<path d="M136.065 233.108C158.406 233.108 180.92 225.488 199.277 209.901C229.412 184.443 243.093 141.32 232.356 105.47L232.183 104.777C230.451 98.1963 222.484 78.1068 209.669 73.604C194.948 68.4084 173.992 71.1794 156.847 113.783C144.724 144.091 137.277 184.096 136.238 226.527C136.238 228.605 136.065 230.857 136.065 233.108ZM135.372 346.718C135.025 346.891 134.679 346.891 134.333 347.064C124.461 350.182 114.07 344.813 110.779 334.941C104.891 316.237 100.908 291.991 99.3492 265.494C73.8909 258.566 50.3376 244.019 32.1531 222.544C8.77302 194.834 -2.48404 159.677 0.460123 123.655C3.40428 87.4588 20.3765 54.7267 47.913 31.3466C66.4439 15.5867 88.9581 5.19556 112.858 1.0391C114.59 0.692727 118.053 0 122.037 0C136.584 0 143.338 7.62016 146.109 12.2962C156.501 29.9611 141.087 50.5702 122.902 69.967C115.802 77.5872 104.025 77.9336 96.5782 70.833C89.3044 64.0787 88.6117 52.6485 95.0196 45.0283C86.8798 48.8384 79.0865 53.6876 72.159 59.5759C52.0695 76.5481 39.9465 100.275 37.6951 126.599C35.4437 152.75 43.7566 178.208 60.7288 198.298C71.2931 210.94 84.4552 220.119 98.8296 225.834C98.8296 225.661 98.8296 225.488 98.8296 225.142C99.6956 192.063 104.545 143.398 122.21 99.5818C132.947 72.9112 147.322 54.034 165.16 43.4696C182.652 33.0785 202.395 31.1734 222.138 38.1009C255.216 49.7043 266.82 88.8443 268.379 94.9058C275.652 119.325 275.133 145.996 267.166 171.8C259.027 197.951 243.959 220.812 223.523 238.304C211.4 248.522 198.065 256.315 184.037 261.511C168.97 267.226 153.037 270.17 137.277 270.343C138.836 290.952 142.126 309.483 146.629 323.511C149.573 333.036 144.724 343.254 135.372 346.718Z" fill="#C9462C"/>
</svg>

<svg width="918" height="348" viewBox="-18 -7 964 362" fill="none" xmlns="http://www.w3.org/2000/svg"><path d="M434.81 128.677V109.28c-2.598-3.464-7.966-5.715-12.296-5.715-8.14 0-14.028 5.888-14.028 15.414 0 9.525 5.888 15.586 14.028 15.586 4.33 0 9.698-2.424 12.296-5.888Zm0 22.341v-7.447c-5.369 6.062-11.777 9.006-18.877 9.006-15.76 0-28.229-11.95-28.229-33.772 0-20.955 12.296-33.598 28.229-33.424 7.1 0 13.855 2.77 18.877 9.178v-7.62h20.436v64.079H434.81ZM336.267 62.52v68.582h42.085v19.916H313.58l-.173-88.325 22.86-.173Zm168.337 88.498V62.693h64.771V82.61h-41.911l-.173 13.681 41.218.174v19.743h-41.218v34.81h-22.687Zm76.548.173V87.112h20.436v7.794c4.33-5.196 12.469-9.525 20.089-9.525v19.57c-1.212-.347-2.944-.52-5.022-.52-5.369 0-12.296 2.251-14.894 5.888v40.872h-20.609Zm92.654-22.168v-19.396c-2.597-3.464-7.966-5.716-12.296-5.716-8.14 0-14.028 5.889-14.028 15.414 0 9.525 5.888 15.587 14.028 15.587 4.503-.173 9.699-2.425 12.296-5.889Zm0 22.168v-7.447c-5.368 6.062-11.776 9.006-18.877 9.006-15.76 0-28.229-11.95-28.229-33.771 0-20.956 12.296-33.598 28.229-33.425 7.101 0 13.855 2.77 18.877 9.179v-7.62h20.436v64.078h-20.436Zm78.627.173v-36.888c0-7.794-4.157-10.565-10.391-10.565-6.062 0-10.045 3.291-12.47 6.235v41.392h-20.436v-64.08h20.436v7.794c3.81-4.503 11.43-9.352 22.341-9.352 14.375 0 21.129 8.486 21.129 20.263v45.375l-20.609-.174Zm31.173-32.039c0-20.09 14.894-33.598 34.81-33.425 13.855 0 22.341 6.062 26.151 11.777l-13.335 12.296c-2.598-3.637-6.581-6.062-12.123-6.062-8.486 0-14.894 5.889-15.067 15.414 0 9.698 6.408 15.587 14.894 15.587 5.369 0 9.525-2.598 12.123-6.235l13.162 12.469c-3.81 5.542-12.296 11.777-26.324 11.777-19.397 0-34.291-13.682-34.291-33.598Zm100.275-16.972c-8.833 0-12.297 5.369-13.162 9.871h26.324c-.52-4.502-3.81-9.871-13.162-9.871Zm-33.945 16.972c0-18.531 14.028-33.598 33.945-33.425 18.877 0 32.732 14.028 32.732 35.676v4.676h-45.548c1.385 5.716 6.754 10.565 16.106 10.565 4.503 0 11.95-1.905 15.587-5.369l8.832 13.335c-6.407 5.715-16.972 8.486-26.843 8.486-19.744-.173-34.984-13.162-34.811-33.944Z" fill="#0098B6"/><path d="M315.139 260.125v-63.213h20.089v63.213h-20.089Zm-1.386-80.358c0-6.408 5.196-11.43 11.604-11.43 6.408 0 11.603 5.195 11.603 11.603 0 6.408-5.195 11.603-11.603 11.603-6.408 0-11.604-5.368-11.604-11.776Zm78.973 80.531v-36.542c0-7.793-3.983-10.391-10.391-10.391-6.062 0-9.872 3.29-12.296 6.061v40.872h-20.09v-63.213h20.09v7.794c3.81-4.503 11.257-9.352 21.994-9.352 14.201 0 20.782 8.313 20.782 20.089v44.682h-20.089Zm29.441-8.139 8.313-14.375c4.676 4.157 14.721 8.486 22.168 8.486 6.062 0 8.486-1.732 8.486-4.503 0-7.793-36.715.174-36.715-25.458 0-11.084 9.698-20.782 27.19-20.782 10.738 0 19.57 3.463 26.497 8.486l-7.793 14.201c-3.81-3.637-10.911-6.927-18.531-6.927-4.676 0-7.793 1.905-7.793 4.329 0 6.928 36.715-.173 36.542 25.632 0 12.123-10.564 20.609-28.749 20.609-11.43 0-23.033-3.81-29.615-9.698Zm112.744-23.381c0-8.312-5.022-15.24-13.854-15.24-8.66 0-13.682 6.928-13.682 15.24 0 8.487 5.022 15.414 13.508 15.414 9.006 0 14.028-6.927 14.028-15.414Zm-48.145 0c0-17.838 12.816-33.078 34.291-33.078 21.648 0 34.464 15.413 34.464 33.078 0 17.839-12.816 33.252-34.638 33.252-21.301 0-34.117-15.413-34.117-33.252Zm122.096 31.693v-7.62c-3.983 4.503-11.084 9.179-21.822 9.179-14.201 0-20.782-8.313-20.782-19.743v-45.028h20.09v36.715c0 7.793 3.983 10.391 10.391 10.391 5.715 0 9.698-3.117 12.123-6.061v-40.872h20.089v63.213l-20.089-.174Zm114.476.174v-38.448c0-4.849-2.425-8.486-8.313-8.486-5.542 0-9.352 3.464-11.431 6.062v40.872h-20.089v-38.448c0-4.849-2.252-8.486-8.313-8.486-5.542 0-9.352 3.464-11.43 6.062v40.872h-20.09v-63.213h20.09v7.793c2.771-3.637 10.91-9.352 20.782-9.352 9.179 0 15.24 3.81 17.838 11.257 3.637-5.542 11.95-11.257 21.822-11.257 11.603 0 18.877 6.062 18.877 19.051v45.721h-19.743Zm34.637 0v-63.213h20.089v63.213h-20.089Zm-1.213-80.359c0-6.407 5.196-11.43 11.604-11.43 6.408 0 11.603 5.196 11.603 11.604 0 6.407-5.195 11.603-11.603 11.603-6.408 0-11.604-5.369-11.604-11.777Zm30.654 72.219 8.313-14.375c4.676 4.157 14.721 8.487 22.168 8.487 6.061 0 8.486-1.732 8.486-4.503 0-7.794-36.715.173-36.715-25.459 0-11.083 9.698-20.782 27.017-20.782 10.737 0 19.57 3.464 26.497 8.486l-7.793 14.201c-3.81-3.636-10.911-6.927-18.531-6.927-4.676 0-7.794 1.905-7.794 4.33 0 6.927 36.716-.174 36.543 25.631 0 11.95-10.565 20.609-28.749 20.609-11.084.173-22.687-3.637-29.442-9.698Zm98.197-40.179c-8.833 0-12.123 5.195-12.989 9.871h25.978c-.347-4.502-3.637-9.871-12.989-9.871Zm-33.425 16.799c0-18.358 13.855-33.079 33.598-33.079 18.704 0 32.386 13.855 32.212 35.157v4.503H872.97c1.386 5.715 6.581 10.391 15.76 10.391 4.503 0 11.777-1.905 15.413-5.369l8.833 13.162c-6.235 5.542-16.799 8.313-26.497 8.313-19.397.173-34.291-12.469-34.291-33.078Zm-716.123 3.983c22.341 0 44.855-7.62 63.212-23.207 30.135-25.458 43.816-68.581 33.079-104.431l-.173-.693c-1.732-6.58-9.699-26.67-22.514-31.173-14.721-5.196-35.677-2.425-52.822 40.179-12.123 30.308-19.57 70.313-20.609 112.744 0 2.078-.173 4.33-.173 6.581Zm-.693 113.61c-.347.173-.693.173-1.039.346-9.872 3.118-20.263-2.251-23.554-12.123-5.888-18.704-9.871-42.95-11.43-69.447-25.458-6.928-49.011-21.475-67.196-42.95C8.773 194.834-2.484 159.677.46 123.655c2.944-36.196 19.916-68.928 47.453-92.308 18.53-15.76 41.045-26.151 64.945-30.308C114.59.693 118.053 0 122.037 0c14.547 0 21.301 7.62 24.072 12.296 10.392 17.665-5.022 38.274-23.207 57.671-7.1 7.62-18.877 7.967-26.324.866-7.274-6.754-7.966-18.184-1.558-25.805-8.14 3.81-15.933 8.66-22.861 14.548-20.09 16.972-32.213 40.699-34.464 67.023-2.251 26.151 6.062 51.609 23.034 71.699 10.564 12.642 23.726 21.821 38.1 27.536v-.692c.867-33.079 5.716-81.744 23.381-125.56 10.737-26.67 25.112-45.548 42.95-56.112 17.492-10.392 37.235-12.297 56.978-5.37 33.078 11.604 44.682 50.744 46.241 56.806 7.273 24.419 6.754 51.09-1.213 76.894-8.139 26.151-23.207 49.012-43.643 66.504-12.123 10.218-25.458 18.011-39.486 23.207a136.454 136.454 0 0 1-46.76 8.832c1.559 20.609 4.849 39.14 9.352 53.168 2.944 9.525-1.905 19.743-11.257 23.207Z" fill="#C9462C"/></svg>
